X:1
T:Title
%%score { ( 1 3 ) | 2 }
L:1/8
M:4/4
K:Eb
V:1 treble nm="Grand Piano"
V:3 treble 
V:2 bass 
V:1
 z4 z2[Q:1/4=100] G>A | B>c B>G [DB]2 [DF]>[FA] | G4 E2 E>E | [DF]>[_D=E] [=DF]>[_EG] [FA]2 [Dc]2 | %4
 B6 G>A | B>c B>G B2 [Ge]>[Ge] | e4 c2 [Ec]>[Ec] | [EB]>[EB] [EB]>[EB] [DG]2 [DF]2 | [B,E]6 z2 | %9
 [GB]4 G2 z2 | [Fd]4 z4 | [FA]>[=EG] [FA]>[GB] [Ad]2 [Ac]2 | [GB]6 z2 | [EB]4 G2 z2 | %14
[M:9/8] .[Ae]6 z3 |[M:4/4] [EB]>[EB] [EB]>[EB] [DB]2 [DF]>[DG] |[M:3/4] [B,E]6 |] %17
V:2
 z4 z2 [E,B,E]>[E,A,E] | [E,G,E]>[E,A,E] [E,G,E]>[E,B,E] [B,,B,]2 [B,,B,]>[B,,B,] | %2
 [E,B,E]4 [E,G,B,]2 [E,G,B,]>[E,G,B,] | [B,,B,]>[B,,B,] [B,,B,]>[B,,B,] [B,,B,]2 [B,,A,]2 | %4
 [E,G,E]6 [E,B,E]>[E,A,E] | [E,G,E]>[E,A,E] [E,G,E]>[E,B,E] [E,G,E]2 [E,B,]>[E,_D] | %6
 [A,CA]4 [A,E]2[K:bass] [A,,A,]>[A,,A,] | [B,,G,]>[B,,G,] [B,,G,]>[B,,G,] [B,,B,]2 [B,,A,]2 | %8
 [E,G,]6 z2 | [E,E]>E, E,>E, [E,B,E]>E, E,>[E,B,] | [B,,B,]>B,, B,,>B,, [B,,B,]2 [B,,B,]>[B,,B,] | %11
 [B,,B,]>[B,,B,] [B,,B,]>[B,,B,] [B,,B,]2 [B,,B,]2 | [E,B,]6 z2 | %13
 [E,G,]>E, E,>E, [E,B,E]>E, E,>[E,_D] |[M:9/8] [A,C]>A,A,- A,/A,/ [A,E]2- [A,E][A,,A,]>[=A,,_G,] | %15
[M:4/4] [B,,G,]>[B,,G,] [B,,G,]>[B,,G,] [B,,F,]2 [B,,A,]>[B,,B,] |[M:3/4] [E,G,]6 |] %17
V:3
 x8 | x8 | x8 | x8 | x8 | x8 | x8 | x8 | x8 | z z/ E/ E>E z z/ E/ [B,GB]>[Ge] | %10
 z z/ B,/ B,>B, [DF]2 [DF]>[EG] | x8 | x8 | z z/ G,/ G,>G, z z/ E/ [_DGB]>[Ge] | %14
[M:9/8] z z/ C/C- C/C/ c2- c[Ec]>[Ec] |[M:4/4] x8 |[M:3/4] x6 |] %17

